X: 11172
T: Duncormick Mummer's
R: jig
M: 6/8
K: Dmajor
|:D2E F2G|A2d d2d|c2B A2B|c2A G2E|
D2E F2G|A2d d2d|e2d c2d|e3 d3:|
f2d dcd|f2d dcd|e2c cBc|d2e f2d|
f2d dcd|f2d dcd|e2d c2d|e3 d3|
f2d dcd|f2d dcd|e2c cBc|d2e f2g|
a2f g2e|f2d dcd|A2B c2d|e3 d3||

